X: 493
T: THE SNOW STORM
B: O'Neill's 493
Z: 1999 by John Chambers <jc@trillian.mit.edu>
N: "Moderate"
N: Collected by "F.ONeill"
M: C
L: 1/8
K:G
D2 \
| G3A B2AG | F>GAB c2Bc | d>e=fe dcA^F | G3F D2 ((3DEF) |
| ~G3A B2(~AG) | F>GAB c2Bc | d>e=fd cA^FA | G4 G2 ||
|| (Bc) \
| (~dc)de =f2ef | dggf g2de | =f2ag fedB | {d2}cBAG F2((3DEF) |
| ~G3A B2(~AG) | F>GAB c2Bc | d>e=fd cA^FA | G4 G2 |]


